svgs/sharp-light/game-console-handheld-crank.svg

<svg xmlns="http://www.w3.org/2000/svg" viewBox="0 0 576 512"><!--! Font Awesome Pro 6.6.0 by @fontawesome - https://fontawesome.com License - https://fontawesome.com/license (Commercial License) Copyright 2024 Fonticons, Inc. --><path d="M32 64l0 384 384 0 0-160 0-32 0-192L32 64zm416 0l0 192 32 0 0-48 0-64 0-16 16 0 64 0 16 0 0 16 0 64 0 16-16 0-48 0 0 48 0 16-16 0-48 0 0 160 0 32-32 0L32 480 0 480l0-32L0 64 0 32l32 0 384 0 32 0 0 32zM96 128l0 128 256 0 0-128L96 128zM64 96l32 0 256 0 32 0 0 32 0 128 0 32-32 0L96 288l-32 0 0-32 0-128 0-32zm448 96l32 0 0-32-32 0 0 32zM128 336l0 16 16 0 16 0 0 32-16 0-16 0 0 16 0 16-32 0 0-16 0-16-16 0-16 0 0-32 16 0 16 0 0-16 0-16 32 0 0 16zm96 24a24 24 0 1 1 48 0 24 24 0 1 1 -48 0zm104-24a24 24 0 1 1 0 48 24 24 0 1 1 0-48z"/></svg>

<svg xmlns="http://www.w3.org/2000/svg" viewBox="0 0 576 512"><!--! Font Awesome Pro 6.4.0 by @fontawesome - https://fontawesome.com License - https://fontawesome.com/license (Commercial License) Copyright 2023 Fonticons, Inc. --><path d="M32 64V448H416V288 256 64H32zm416 0V256h32V208 144 128h16 64 16v16 64 16H560 512v48 16H496 448V448v32H416 32 0V448 64 32H32 416h32V64zM96 128V256H352V128H96zM64 96H96 352h32v32V256v32H352 96 64V256 128 96zm448 96h32V160H512v32zM128 336v16h16 16v32H144 128v16 16H96V400 384H80 64V352H80 96V336 320h32v16zm96 24a24 24 0 1 1 48 0 24 24 0 1 1 -48 0zm104-24a24 24 0 1 1 0 48 24 24 0 1 1 0-48z"/></svg>
